src/icons/icons_set_04/033-coeur.svg

<?xml version="1.0" encoding="UTF-8"?>
<svg width="50px" height="50px" viewBox="0 0 50 50" version="1.1" xmlns="http://www.w3.org/2000/svg" xmlns:xlink="http://www.w3.org/1999/xlink">
    <!-- Generator: Sketch 52.2 (67145) - http://www.bohemiancoding.com/sketch -->
    <title>033-coeur</title>
    <desc>Created with Sketch.</desc>
    <g id="033-coeur" stroke="none" stroke-width="1" fill="none" fill-rule="evenodd">
        <g id="Group" transform="translate(-0.005000, 2.480799)" fill="#000000" fill-rule="nonzero">
            <g id="200-coeur" transform="translate(0.005000, 0.519201)">
                <g id="ICONSET-01">
                    <g id="200-coeur">
                        <path d="M24.9881657,44.8067114 C23.9793928,44.8086334 23.0114932,44.3999404 22.2988166,43.6711409 L5.0295858,26.0305369 C1.05846615,22.4488456 -0.67247358,16.934936 0.519680361,11.6642304 C1.7118343,6.39352477 5.6356424,2.21240822 10.7430308,0.770471441 C15.8504192,-0.671465344 21.3212286,0.857328016 24.9970414,4.75369128 C27.7106302,1.84801811 31.4756423,0.209763774 35.408284,0.223489933 C41.4205213,0.216761948 46.8078157,4.01327405 48.9328396,9.75445949 C51.0578633,15.495645 49.4759577,21.9801679 44.9615385,26.033557 L27.6863905,43.6711409 C26.9719186,44.4027449 26.0001414,44.8117254 24.9881657,44.8067114 Z" id="Shape"></path>
                    </g>
                </g>
            </g>
        </g>
    </g>
</svg>

<svg height="50" viewBox="0 0 50 50" width="50" xmlns="http://www.w3.org/2000/svg"><path d="m24.9881657 44.8067114c-1.0087729.001922-1.9766725-.406771-2.6893491-1.1355705l-17.2692308-17.640604c-3.97111965-3.5816913-5.70205938-9.0956009-4.50990544-14.3663065 1.19215394-5.27070563 5.11596204-9.45182218 10.22335044-10.89375896s10.5781978.08685658 14.2540106 3.98321984c2.7135888-2.90567317 6.4786009-4.54392751 10.4112426-4.53020135 6.0122373-.00672798 11.3995317 3.78978412 13.5245556 9.53096956 2.1250237 5.74118551.5431181 12.22570841-3.9713011 16.27909751l-17.275148 17.6375839c-.7144719.731604-1.6862491 1.1405845-2.6982248 1.1355705z" transform="translate(0 3)"/></svg>
